Simply-Green-Circles/scalable/apps/QOwnNotes.svg

<svg xmlns="http://www.w3.org/2000/svg" width="48" height="48" viewBox="0 0 12.7 12.7"><path d="M6.34.07a6.29 6.29 0 0 0-6.29 6.3 6.29 6.29 0 0 0 6.3 6.28 6.29 6.29 0 0 0 6.28-6.29A6.29 6.29 0 0 0 6.34.07zM6.32 1l.01.01a5.4 5.4 0 0 1 5.4 5.4 5.4 5.4 0 0 1-5.4 5.41 5.4 5.4 0 0 1-5.41-5.4A5.4 5.4 0 0 1 6.32 1zm.03 1.65a2.65 2.65 0 0 0-.23 0 2.47 2.47 0 0 0-.05.01A2.65 2.65 0 0 0 3.7 5.3a2.65 2.65 0 0 0 0 .02 1.85 1.85 0 0 0-1.58 1.83 1.85 1.85 0 0 0 0 .05 1.76 1.76 0 0 0 0 .04A1.76 1.76 0 0 0 3.88 9h4.59a2.12 2.12 0 0 0 2.11-2.12 2.12 2.12 0 0 0-1.63-2.06 2.65 2.65 0 0 0-2.24-2.15 2.47 2.47 0 0 0-.03 0 2.65 2.65 0 0 0-.17-.02 2.47 2.47 0 0 0-.16 0zm0 .79h.1a.8.8 0 0 0 .02 0l.1.02h.01a.8.8 0 0 0 .02 0c.8.11 1.43.71 1.57 1.5a.8.8 0 0 0 .6.64c.6.14 1.02.66 1.02 1.28 0 .74-.58 1.32-1.32 1.32H3.88a.96.96 0 0 1-.97-.97v-.01a.8.8 0 0 0 0-.06v-.02c0-.53.38-.97.9-1.04a.8.8 0 0 0 .69-.8c0-.96.7-1.75 1.65-1.85a.8.8 0 0 0 .02 0 1.07 1.07 0 0 1 .17-.01z" fill="#2ca02c"/></svg>

<?xml version="1.0" encoding="UTF-8" standalone="no"?>
<svg
   xmlns:dc="http://purl.org/dc/elements/1.1/"
   xmlns:cc="http://creativecommons.org/ns#"
   xmlns:rdf="http://www.w3.org/1999/02/22-rdf-syntax-ns#"
   xmlns:svg="http://www.w3.org/2000/svg"
   xmlns="http://www.w3.org/2000/svg"
   xmlns:sodipodi="http://sodipodi.sourceforge.net/DTD/sodipodi-0.dtd"
   xmlns:inkscape="http://www.inkscape.org/namespaces/inkscape"
   width="48"
   height="48"
   viewBox="0 0 12.7 12.7"
   version="1.1"
   id="svg4"
   sodipodi:docname="QOwnNotes.svg"
   inkscape:version="0.92.4 (5da689c313, 2019-01-14)">
  <metadata
     id="metadata10">
    <rdf:RDF>
      <cc:Work
         rdf:about="">
        <dc:format>image/svg+xml</dc:format>
        <dc:type
           rdf:resource="http://purl.org/dc/dcmitype/StillImage" />
        <dc:title></dc:title>
      </cc:Work>
    </rdf:RDF>
  </metadata>
  <defs
     id="defs8" />
  <sodipodi:namedview
     pagecolor="#ffffff"
     bordercolor="#666666"
     borderopacity="1"
     objecttolerance="10"
     gridtolerance="10"
     guidetolerance="10"
     inkscape:pageopacity="0"
     inkscape:pageshadow="2"
     inkscape:window-width="1087"
     inkscape:window-height="480"
     id="namedview6"
     showgrid="false"
     inkscape:zoom="4.9166667"
     inkscape:cx="2.1355932"
     inkscape:cy="24"
     inkscape:window-x="0"
     inkscape:window-y="25"
     inkscape:window-maximized="0"
     inkscape:current-layer="svg4" />
  <path
     d="M 6.34,0.07 A 6.29,6.29 0 0 0 0.05,6.37 6.29,6.29 0 0 0 6.35,12.65 6.29,6.29 0 0 0 12.63,6.36 6.29,6.29 0 0 0 6.34,0.07 Z M 6.32,1 6.33,1.01 a 5.4,5.4 0 0 1 5.4,5.4 5.4,5.4 0 0 1 -5.4,5.41 A 5.4,5.4 0 0 1 0.92,6.42 5.4,5.4 0 0 1 6.32,1 Z m 0.03,1.65 a 2.65,2.65 0 0 0 -0.23,0 2.47,2.47 0 0 0 -0.05,0.01 2.65,2.65 0 0 0 -2.37,2.64 2.65,2.65 0 0 0 0,0.02 1.85,1.85 0 0 0 -1.58,1.83 1.85,1.85 0 0 0 0,0.05 1.76,1.76 0 0 0 0,0.04 A 1.76,1.76 0 0 0 3.88,9 H 8.47 A 2.12,2.12 0 0 0 10.58,6.88 2.12,2.12 0 0 0 8.95,4.82 2.65,2.65 0 0 0 6.71,2.67 a 2.47,2.47 0 0 0 -0.03,0 2.65,2.65 0 0 0 -0.17,-0.02 2.47,2.47 0 0 0 -0.16,0 z m 0,0.79 h 0.1 a 0.8,0.8 0 0 0 0.02,0 l 0.1,0.02 h 0.01 a 0.8,0.8 0 0 0 0.02,0 c 0.8,0.11 1.43,0.71 1.57,1.5 A 0.8,0.8 0 0 0 8.77,5.6 C 9.37,5.74 9.79,6.26 9.79,6.88 9.79,7.62 9.21,8.2 8.47,8.2 H 3.88 A 0.96,0.96 0 0 1 2.91,7.23 V 7.22 a 0.8,0.8 0 0 0 0,-0.06 V 7.14 C 2.91,6.61 3.29,6.17 3.81,6.1 A 0.8,0.8 0 0 0 4.5,5.3 C 4.5,4.34 5.2,3.55 6.15,3.45 a 0.8,0.8 0 0 0 0.02,0 1.07,1.07 0 0 1 0.17,-0.01 z"
     id="path2"
     inkscape:connector-curvature="0"
     style="fill:#2ca02c" />
</svg>
